X: 245
T: Indian Corn
C:Traditional, from Willie O. Ault
B: canberra pickers and fiddlers
B: tunes
M:4/4
L:1/8
Q: 1/4=100
K:G
V:1 
zD-|:"G" DGBG BGBG |"C" DGcG cGcG |"G" DGBG BGBB |"D" cBAG FDEG |"G" DGBG BGBG 
|1 "C" DGcG cGBc |"G" d2 de dBAF |"D" GBAF "G" G2 (3GFE :|2"C" DGcG""cGBc |
"G" d2 de dBAF |"D" GBAF "G" G2 AB-|:"G" BcdB G2 GF |"C" EFGE "G"D2DC |
"G" B,CDE G2AB- |"G" BBcB "D"A2A2 |"G" BcdB G2 GF |"C"  EFGE"G" D2 DC |
"G" B,CDE G2 AB- |1 "D" BBAF "G" G2 AB :|2 "D"BBAF"G " G4 ||
% abcbook-tune_id 63ae8f1cb496fdd00f2b720c
% abcbook-tune_composer_id 
% abcbook-link-0 https://www.youtube.com/watch?v=nCaNAqwgkKA
% abcbook-boost 0
% abcbook-difficulty 1
% abcbook-tags canberra pickers and fiddlers,old time tunes,steve ryan,test,traditional songs,© free
% abcbook-tablature 
% abcbook-transpose 
% abcbook-tuning GDAD
% abcbook-lastupdated 1705707782047
% abcbook-src-url https://tunebook.net/scrape/tunes.abc
% abcbook-soundfonts 
% abcbook-repeats 1


